X:625070
T:Ash Swamp Jig
C:Peter Yarensky, June 26, 2020
H:This tune just came to me nearly complete. For most dances omit the repeat
H:in the A part and play the second ending.
N:From NH Country Dance (URL below), along with many New England, Canadian & Swedish
N:tunes, and resources for abc notation and New England traditional music and dance.
%
N: Note #1: To preserve formatting (font, spacing, etc.), use the
N: file header at the URL below; just follow accompanying instructions.
%
N: Note #2: This abc code is optimized for use with abcm2ps, which is used by
N: EasyABC and other abc apps. To use abc2svg for display or printing look to see if there
N: is a file optimized for abc2svg. If not you may need to adjust the spacing in places.
%
Z:abc-transcription Peter Yarensky. I rely heavily on careful listening to the
Z:named sources aided by software to hear details. While not perfect, known
Z:substantial differences from other written sources receive careful attention.
Z:abc-copyright Peter Yarensky. You may reproduce this tune freely but
Z:please include the entire abc file including all the notes.
%%writefields HQSD
F:Tunes Home Page - https://fiddle-tunes.nhcountrydance.com/
F:abc Header & its Usage - https://fiddle-tunes.nhcountrydance.com/header-page/
M:6/8
L:1/8
R:Jig
G:Jigs
N: Tune Tags ~ Jig, New England Repertoire, Peter Yarensky, June 26, 2020
K:D
A A>BA |\
"D" aAA fAA  | "D" d>ed dAF  | "D" DF A BAF      | "A7" (FG-)G E>FE |
"A7" eAA dAA | "A7" c>dc c2B | "A7" A^GA BA=G    | "D" F2A A>BA |
"D" aAA fAA  | "D" d>ed dAF  | "D" DFA "D7" dA=c | "G" B3 A>BA |
"A7" eAA dAA | "A7" c>dc c2B | "A7" A^GA =gBc    |1 "D" d2 :|2 "D" d3 d ||
|: FG |\
"D" AFF FGA  | "G" BGG GAB  | "D" AFA dAF       | "A7" E3 F2G |
"D" AFF FGA  | "G" BGG GAB  | "A7" A^GA =gBc    |1 "D" d3 d :|2 "D" d2 |]

